X:5099
T:The Notionate Reel
M:4/4
R:Reel
L:1/8
Q:180
C:Aidan Crossey
K:D
|:fAdf eAce|dedB AFDF|GABG FAdf|edcB ABde|
fAdf eAce|dedB AFDF|GABG FAdf|eABc d4:||
|:fa ~a2 ba ~a2|gefd edBd|fa ~a2 ba ~a2|gegb a2 af|
g2 bg f2 af|efed B2 AB|Afdf bfaf|egfe d4:||
